assets/icons/qvision/dry_cleaning.svg

<svg xmlns="http://www.w3.org/2000/svg" enable-background="new 0 0 24 24" height="24" viewBox="0 0 24 24" width="24"><g><rect fill="none" height="24" width="24"/></g><g><path d="M19.56,11.36L13,8.44V7c0-0.55-0.45-1-1-1l0,0c-0.55,0-1-0.45-1-1s0.45-1,1-1s1,0.45,1,1h2c0-1.84-1.66-3.3-3.56-2.95 C10.26,2.27,9.29,3.22,9.06,4.4C8.76,5.96,9.66,7.34,11,7.82v0.63l-6.56,2.92C3.56,11.75,3,12.62,3,13.57v0.01 C3,14.92,4.08,16,5.42,16H7v6h10v-6h1.58c1.34,0,2.42-1.08,2.42-2.42v-0.01C21,12.62,20.44,11.75,19.56,11.36z M18.58,14H17v-1H7v1 H5.42C5.19,14,5,13.81,5,13.57c0-0.17,0.1-0.32,0.25-0.38l6.75-3l6.75,3C18.9,13.26,19,13.41,19,13.58C19,13.81,18.81,14,18.58,14z"/></g></svg>

<svg width="24" height="24" viewBox="0 0 24 24" fill="none" xmlns="http://www.w3.org/2000/svg">
<g clip-path="url(#clip0_147_5220)">
<path d="M19.56 11.36L13 8.44V7C13 6.45 12.55 6 12 6C11.45 6 11 5.55 11 5C11 4.45 11.45 4 12 4C12.55 4 13 4.45 13 5H15C15 3.16 13.34 1.7 11.44 2.05C10.26 2.27 9.29 3.22 9.06 4.4C8.76 5.96 9.66 7.34 11 7.82V8.45L4.44 11.37C3.56 11.75 3 12.62 3 13.57V13.58C3 14.92 4.08 16 5.42 16H7V22H17V16H18.58C19.92 16 21 14.92 21 13.58V13.57C21 12.62 20.44 11.75 19.56 11.36ZM18.58 14H17V13H7V14H5.42C5.19 14 5 13.81 5 13.57C5 13.4 5.1 13.25 5.25 13.19L12 10.19L18.75 13.19C18.9 13.26 19 13.41 19 13.58C19 13.81 18.81 14 18.58 14Z" fill="#323232"/>
</g>
<defs>
<clipPath id="clip0_147_5220">
<rect width="24" height="24" fill="white"/>
</clipPath>
</defs>
</svg>
